X:1
T:The Brewer Lad
M:4/4
L:1/8
K:F
 A2| Ac cA GF FF| Ff fc d2 ce| fc df c/2 A3/2 GF| FF AF D2 C C/2C/2|\
 FF A/2A/2 A/2F/2 GF D C/2C/2| FF F/2G/2 A/2F/2 G2 F||
